archdroid-icon-theme/Archdroid-ArchBlue/mimetypes/scalable/application-vnd.ms-outlook.svg

<svg fill="#1793D1" height="48" viewBox="0 0 48 48" width="48" xmlns="http://www.w3.org/2000/svg"><path d="m12 4c-2.21 0-3.980469 1.79-3.980469 4l-.019531 32c0 2.21 1.770468 4 3.980469 4h24.019531c2.21 0 4-1.79 4-4v-24l-12-12zm14 3 11 11h-11zm-1.810547 16.371094c1.71875 0 3.115235.576172 4.189453 1.728515 1.080729 1.145834 1.621094 2.587891 1.621094 4.326172v2.529297c0 1.738281-.540365 3.180339-1.621094 4.326172-1.074218 1.145833-2.470703 1.71875-4.189453 1.71875-1.660156 0-3.011068-.572917-4.052734-1.71875-1.035156-1.145833-1.552735-2.587891-1.552735-4.326172v-2.529297c0-1.731771.517579-3.173828 1.552735-4.326172 1.041666-1.152343 2.392578-1.728515 4.052734-1.728515zm0 1.582031c-1.119792 0-2.014974.416667-2.685547 1.25-.664062.833333-.996093 1.901042-.996093 3.203125v2.548828c0 1.315104.332031 2.389323.996093 3.222656.670573.833334 1.565755 1.25 2.685547 1.25 1.191406 0 2.135417-.413411 2.832031-1.240234.703125-.833333 1.054688-1.910807 1.054688-3.232422v-2.548828c0-1.302083-.351563-2.369792-1.054688-3.203125s-1.647135-1.25-2.832031-1.25z" fill="#0072c6"/></svg>

<svg fill="#1793D1" height="48" version="1.1" viewBox="0 0 48 48" width="48" xmlns="http://www.w3.org/2000/svg"><path d="M12 4C9.79 4 8.019531 5.79 8.019531 8L8 40C8 42.21 9.770468 44 11.980469 44L36 44C38.21 44 40 42.21 40 40L40 16 28 4 12 4zM26 7L37 18 26 18 26 7zM24.189453 23.371094C25.908203 23.371094 27.304688 23.947266 28.378906 25.099609 29.459635 26.245443 30 27.6875 30 29.425781L30 31.955078C30 33.693359 29.459635 35.135417 28.378906 36.28125 27.304688 37.427083 25.908203 38 24.189453 38 22.529297 38 21.178385 37.427083 20.136719 36.28125 19.101563 35.135417 18.583984 33.693359 18.583984 31.955078L18.583984 29.425781C18.583984 27.69401 19.101563 26.251953 20.136719 25.099609 21.178385 23.947266 22.529297 23.371094 24.189453 23.371094zM24.189453 24.953125C23.069661 24.953125 22.174479 25.369792 21.503906 26.203125 20.839844 27.036458 20.507813 28.104167 20.507813 29.40625L20.507813 31.955078C20.507813 33.270182 20.839844 34.344401 21.503906 35.177734 22.174479 36.011068 23.069661 36.427734 24.189453 36.427734 25.380859 36.427734 26.32487 36.014323 27.021484 35.1875 27.724609 34.354167 28.076172 33.276693 28.076172 31.955078L28.076172 29.40625C28.076172 28.104167 27.724609 27.036458 27.021484 26.203125 26.318359 25.369792 25.374349 24.953125 24.189453 24.953125z" fill="#0072c6"/></svg>
